X: 150
T: Dr. Gilbert's
R:reel
M:4/4
L:1/8
K:Edor
gf|:"Em"eBBA "(G)"B3c|"D"dBA=c "G"BAGF|"Em"EDB,D "(G)"G2 FG|"Em"EDB,E "G"DB,A,G,|
"Em"B,E (3EEE EDB,D|"C"GE (3EEE EFGA|"G"Bded Bdgb|"D"afdf "Em"efgf:|
|: "Em"e~B3 "(G)"g~B3|"D"defa afdf|"G"(3ggg bg "D"(3fff af| "Em"egfd edB2|
"D"afdf "Em"edBc|"D"dBAF AFDF|"Am7"EG=cA "G"Bdgb|"D"afdf "Em"efgf:|


